dist/icons/svgs/pen-solid.svg

<svg xmlns="http://www.w3.org/2000/svg" width="24" height="24" fill="currentcolor" class="icon-pen-solid" viewBox="0 0 24 24">
  <path d="M16.1406 2.78125C17.1172 1.80469 18.7188 1.80469 19.6953 2.78125L21.2188 4.30469C22.1953 5.28125 22.1953 6.88281 21.2188 7.85938L19.3438 9.73438L14.2656 4.65625L16.1406 2.78125ZM13.3672 5.55469L18.4453 10.6328L9.34375 19.7344C8.95312 20.125 8.44531 20.4375 7.89844 20.5938L3.17188 22C2.85938 22.0781 2.50781 22 2.27344 21.7266C2 21.4922 1.92188 21.1406 2.03906 20.8281L3.40625 16.1016C3.5625 15.5547 3.875 15.0469 4.26562 14.6562L13.3672 5.55469Z"/>
</svg>

<svg xmlns="http://www.w3.org/2000/svg" width="24" height="24" fill="currentColor" class="icon-pen-solid" viewBox="0 0 24 24">
  <path d="M16.14 2.781a2.523 2.523 0 0 1 3.555 0l1.524 1.524a2.523 2.523 0 0 1 0 3.554l-1.875 1.875-5.078-5.078zm-2.773 2.774 5.078 5.078-9.101 9.101c-.39.391-.899.703-1.446.86L3.172 22a.89.89 0 0 1-.899-.273.8.8 0 0 1-.234-.899l1.367-4.726a3.4 3.4 0 0 1 .86-1.446z"/>
</svg>
